!!!COM: Music21
!!!OTL: Polca
!!!OMV: pezas_polca_polca-6_polca-partitura.musicxml
**kern
*part1
*staff1
*I"Bagpipes
*I'Bag
*clefG^2
*k[]
*M2/4
=1
!LO:TX:a:t=Andante
*MM100
!LO:TX:a:t=[quarter]=100
2gg
=
2ccc
=
16ggLL
16aa
16gg
16ffJJ
16eeLL
16ff
16ee
16ddJJ
=
8ccL
8ccJ
8cc
8r
=
16eeLL
16ff
16ee
16ddJJ
16eeLL
16ff
16ee
16ddJJ
=||
8eeL
8ccJ
8ccL
16ddL
16eeJJ
=
8ffL
8ddJ
8ddL
16eeL
16ffJJ
=
8eeL
8ccJ
4cc
!!linebreak:original
=
16eeLL
16ff
16ee
16ddJJ
16eeLL
16ff
16ee
16ddJJ
=
8eeL
8ccJ
8ccL
16ddL
16eeJJ
=
8ffL
8ddJ
16ddLL
16ff
16ee
16ddJJ
=
8ccL
8ccJ
4cc
=||
8eeL
8ccJ
8ccL
16ddL
16eeJJ
=
8ffL
8ddJ
8ddL
16eeL
16ffJJ
=
8eeL
8ccJ
4cc
!!linebreak:original
=
16eeLL
16ff
16ee
16ddJJ
16eeLL
16ff
16ee
16ddJJ
=
8eeL
8ccJ
8ccL
16ddL
16eeJJ
=
8ffL
8ddJ
16ddLL
16ff
16ee
16ddJJ
=
8ccL
8ccJ
8ccL
16bbL
16aaJJ
=||
8ggL
16aaL
16ggJJ
8ffL
16eeL
16ffJJ
=
8ggL
8eeJ
8eeL
16ffL
16ggJJ
=
8aaL
8ffJ
8ffL
16ggL
16aaJJ
!!linebreak:original
=
8ggL
8eeJ
8eeL
16ggL
16ffJJ
=
16ggLL
16aa
16gg
16aaJJ
16ggLL
16ff
16ee
16ffJJ
=
8ggL
8eeJ
8eeL
16ffL
16ggJJ
=
16aaLL
16gg
16ff
16eeJJ
16ddLL
16ee
16ff
16ggJJ
=
8eeL
8eeJ
8eeL
16bbL
16aaJJ
=||
8ggL
16aaL
16ggJJ
8ffL
16eeL
16ffJJ
=
8ggL
8eeJ
8eeL
16ffL
16ggJJ
!!linebreak:original
=
8aaL
8ffJ
8ffL
16ggL
16aaJJ
!!linebreak:original
=
8ggL
8eeJ
8eeL
16ggL
16ffJJ
=
16ggLL
16aa
16gg
16aaJJ
16ggLL
16ff
16ee
16ffJJ
=
8ggL
8eeJ
8eeL
16ffL
16ggJJ
=
16aaLL
16gg
16ff
16eeJJ
16ddLL
16ee
16ff
16ggJJ
=
8eeL
8eeJ
4ee
=
4bb
4aa
=
8ggL
8eeJ
4ee
=
4bb
4aa
=
2gg
!!pagebreak:original
=
4bb
4aa
=
8ggL
8eeJ
4ee
=
4ff
4gg
=
2ee
=
4gg
4ff
=
8eeL
8ccJ
4cc
=
4gg
4ff
=
2ee
=
4gg
4ff
=
8eeL
8ccJ
4cc
=
4ff
4gg
=
2ee
=||
16ggLL
16aa
16gg
16ffJJ
16ggLL
16aa
16gg
16eeJJ
!!linebreak:original
=||
16ffLL
16gg
16ff
16eeJJ
16ffLL
16gg
16ff
16ddJJ
=
16ggLL
16aa
16gg
16eeJJ
16ffLL
16gg
16ff
16ddJJ
=
8eeL
8eeJ
8ee
8r
==
*-
!!!system-decoration: s1,s2
